X: 1
T: Minuet in G
C: J.S. Bach
M: 3/4
L: 1/8
K: G
|: D2 | G2 GABc | d2 d2 g2 | E2 EFGD | c2 c2 c2 |
| d2 dcBA | B2 BAGF | E2 FGAB | A4 :|
|: d2 | d2 defg | a2 a2 d2 | b2 b2 g2 | f2 f2 d2 |
| g2 gfed | e2 edcB | c2 cBAG | D4 :|
